pix_plugins/mod/certificate/monologo.svg

<?xml version="1.0" encoding="UTF-8" standalone="no"?>
<!DOCTYPE svg PUBLIC "-//W3C//DTD SVG 1.1//EN" "http://www.w3.org/Graphics/SVG/1.1/DTD/svg11.dtd">
<!-- Created with Vectornator (http://vectornator.io/) -->
<svg height="100%" stroke-miterlimit="10" style="fill-rule:nonzero;clip-rule:evenodd;stroke-linecap:round;stroke-linejoin:round;" version="1.1" viewBox="0 0 216 144" width="100%" xml:space="preserve" xmlns="http://www.w3.org/2000/svg" xmlns:vectornator="http://vectornator.io" xmlns:xlink="http://www.w3.org/1999/xlink">
<defs/>
<g id="Untitled" vectornator:layerName="Untitled">
<g opacity="1" vectornator:layerName="g">
<g opacity="1" vectornator:layerName="Untitled">
<path d="M172.723 135.954L43.081 135.954C35.809 135.954 29.892 130.034 29.892 122.757L29.892 21.236C29.892 13.963 35.809 8.046 43.081 8.046L172.92 8.046C180.192 8.046 186.108 13.963 186.108 21.236L186.108 122.757C186.108 123.274 186.01 123.767 185.833 124.219C185.103 130.811 179.502 135.954 172.723 135.954ZM43.081 16.046C40.22 16.046 37.892 18.374 37.892 21.236L37.892 122.757C37.892 125.623 40.22 127.954 43.081 127.954L172.723 127.954C175.585 127.954 177.913 125.623 177.913 122.757C177.913 122.324 177.981 121.908 178.108 121.519L178.108 21.236C178.108 18.374 175.781 16.046 172.92 16.046L43.081 16.046Z" fill="#000000" fill-rule="nonzero" opacity="1" stroke="none" vectornator:layerName="path"/>
<path d="M50.382 110.402L106.198 110.402M53.842 104.361C53.842 104.361 59.356 95.507 63.74 99.319C69.539 104.361 60.543 116.36 64.363 116.803C67.22 117.125 75.634 94.89 75.634 94.89L75.634 113.036L89.105 99.319L81.279 116.802L95.672 104.36L102.395 104.36" fill="none" opacity="1" stroke="#000000" stroke-linecap="round" stroke-linejoin="round" stroke-width="4" vectornator:layerName="path"/>
<path d="M160.024 52.4933L163.649 50.0473L163.356 45.7763L165.104 42.0313L162.65 38.4033L162.267 33.8953L158.35 32.0863L155.994 28.6933L151.566 28.9033L147.483 26.9903L144.016 29.5253L139.739 29.8043L137.915 33.7213L134.224 36.3413L134.682 40.6933L132.767 44.3633L135.364 48.0763L135.582 52.5223L139.492 54.3203L141.856 57.7053L146.306 57.5103L150.389 59.4043L153.84 56.8603L158.118 56.5893L160.024 52.4933Z" fill="none" opacity="1" stroke="#000000" stroke-linecap="round" stroke-linejoin="round" stroke-width="5" vectornator:layerName="path"/>
</g>
</g>
<g opacity="1" vectornator:layerName="g4216">
<path d="M56.322 34.893L49.053 40.521C51.139 43.92 53.374 45.755 56.322 46.619C60.164 45.493 62.3 42.623 63.591 40.521L56.322 34.893ZM56.322 37.706C57.47 37.706 58.433 39.179 58.433 40.989C58.433 42.801 57.47 44.272 56.322 44.272C55.174 44.272 54.211 42.8 54.211 40.989C54.211 39.179 55.174 37.706 56.322 37.706Z" fill="#000000" fill-rule="nonzero" opacity="1" stroke="none" vectornator:layerName="path"/>
<path d="M47.176 23.637C47.176 24.823 47.198 30.975 47.176 32.782C47.183 34.057 47.148 35.136 47.411 36.299L56.322 29.498L65.233 36.299C65.496 35.129 65.68 33.823 65.702 32.547C65.68 30.611 65.702 23.929 65.702 23.636L47.176 23.637L47.176 23.637ZM50.694 24.574C51.842 24.574 52.805 25.537 52.805 26.685C52.805 27.832 51.842 28.796 50.694 28.796C49.546 28.796 48.583 27.831 48.583 26.684C48.583 25.536 49.546 24.574 50.694 24.574ZM56.322 24.574C57.47 24.574 58.433 25.537 58.433 26.685C58.433 27.832 57.47 28.796 56.322 28.796C55.174 28.796 54.211 27.831 54.211 26.684C54.211 25.536 55.174 24.574 56.322 24.574ZM62.185 24.574C63.336 24.574 64.296 25.532 64.296 26.685C64.296 27.838 63.338 28.796 62.185 28.796C61.032 28.796 60.074 27.838 60.074 26.685C60.074 25.532 61.033 24.574 62.185 24.574Z" fill="#000000" fill-rule="nonzero" opacity="1" stroke="none" vectornator:layerName="path"/>
</g>
<path d="M138.246 55.7213L150.056 59.1053L159.008 55.7213L159.008 93.1L148.862 83.456L138.246 93.1L138.246 55.7213Z" fill="#000000" fill-rule="nonzero" opacity="1" stroke="#000000" stroke-linecap="round" stroke-linejoin="round" stroke-width="5"/>
<path d="M76.2653 55.1394L114.447 55.1394M76.2653 65.2934L97.1594 65.2934L100.157 65.2934L114.447 65.2934" fill="none" opacity="1" stroke="#000000" stroke-linecap="round" stroke-linejoin="round" stroke-width="4" vectornator:layerName="path"/>
<path d="M76.2653 65.1394L114.447 65.1394M76.2653 75.2934L97.1594 75.2934L100.157 75.2934L114.447 75.2934" fill="none" opacity="1" stroke="#000000" stroke-linecap="round" stroke-linejoin="round" stroke-width="4" vectornator:layerName="path"/>
</g>
</svg>

<?xml version="1.0" encoding="utf-8"?>
<!-- Generator: Adobe Illustrator 15.0.0, SVG Export Plug-In . SVG Version: 6.00 Build 0)  -->
<!DOCTYPE svg PUBLIC "-//W3C//DTD SVG 1.1//EN" "http://www.w3.org/Graphics/SVG/1.1/DTD/svg11.dtd">
<svg version="1.1" id="Layer_1" xmlns:vectornator="http://vectornator.io"
	 xmlns="http://www.w3.org/2000/svg" xmlns:xlink="http://www.w3.org/1999/xlink" x="0px" y="0px" width="216px" height="144px"
	 viewBox="0 0 216 144" enable-background="new 0 0 216 144" xml:space="preserve">
<g>
	<g id="Untitled" vectornator:layerName="Untitled">
		<path d="M172.723,135.954H43.081c-7.272,0-13.189-5.92-13.189-13.197V21.236c0-7.273,5.917-13.19,13.189-13.19H172.92
			c7.272,0,13.188,5.917,13.188,13.19v101.521c0,0.517-0.098,1.01-0.275,1.462C185.103,130.811,179.502,135.954,172.723,135.954z
			 M43.081,16.046c-2.861,0-5.189,2.328-5.189,5.19v101.521c0,2.866,2.328,5.197,5.189,5.197h129.642c2.862,0,5.19-2.331,5.19-5.197
			c0-0.433,0.068-0.849,0.195-1.238V21.236c0-2.862-2.327-5.19-5.188-5.19H43.081z"/>
		<path fill="none" stroke="#000000" stroke-width="4" stroke-linecap="round" stroke-linejoin="round" stroke-miterlimit="10" d="
			M107.534,110.402h55.816 M110.994,104.361c0,0,5.514-8.854,9.898-5.042c5.799,5.042-3.197,17.041,0.623,17.484
			c2.857,0.322,11.271-21.913,11.271-21.913v18.146l13.471-13.717l-7.826,17.483l14.393-12.442h6.723 M129.59,25.778h38.182
			 M129.59,35.932h38.182 M76.378,25.778h38.181 M76.378,35.932h38.181"/>
		<path fill="none" stroke="#000000" stroke-width="6" stroke-linecap="round" stroke-linejoin="round" stroke-miterlimit="10" d="
			M77.189,66.583h64.692 M70.157,54.797h80.437"/>
		
			<line fill="none" stroke="#000000" stroke-width="4" stroke-linecap="round" stroke-linejoin="round" stroke-miterlimit="10" x1="74.135" y1="77.725" x2="146.615" y2="77.725"/>
		<path fill="none" stroke="#000000" stroke-width="5" stroke-linecap="round" stroke-linejoin="round" stroke-miterlimit="10" d="
			M76.708,113.284l3.625-2.446l-0.293-4.271l1.748-3.745l-2.454-3.628l-0.383-4.508l-3.917-1.809l-2.356-3.393l-4.428,0.21
			l-4.083-1.913l-3.467,2.535l-4.277,0.279l-1.824,3.917l-3.691,2.62l0.458,4.352l-1.915,3.67l2.597,3.713l0.218,4.446l3.91,1.798
			l2.364,3.385l4.45-0.195l4.083,1.894l3.451-2.544l4.278-0.271L76.708,113.284z"/>
	</g>
	<g id="g4216" vectornator:layerName="g4216">
		<path d="M56.322,34.893l-7.269,5.628c2.086,3.399,4.321,5.234,7.269,6.098c3.842-1.126,5.978-3.996,7.269-6.098L56.322,34.893z
			 M56.322,37.706c1.148,0,2.111,1.473,2.111,3.283c0,1.812-0.963,3.283-2.111,3.283s-2.111-1.472-2.111-3.283
			C54.211,39.179,55.174,37.706,56.322,37.706z"/>
		<path d="M47.176,23.637c0,1.186,0.022,7.338,0,9.145c0.007,1.275-0.028,2.354,0.235,3.517l8.911-6.801l8.911,6.801
			c0.263-1.17,0.447-2.476,0.469-3.752c-0.022-1.936,0-8.618,0-8.911L47.176,23.637L47.176,23.637z M50.694,24.574
			c1.148,0,2.111,0.963,2.111,2.111c0,1.147-0.963,2.111-2.111,2.111s-2.111-0.965-2.111-2.112
			C48.583,25.536,49.546,24.574,50.694,24.574z M56.322,24.574c1.148,0,2.111,0.963,2.111,2.111c0,1.147-0.963,2.111-2.111,2.111
			s-2.111-0.965-2.111-2.112C54.211,25.536,55.174,24.574,56.322,24.574z M62.185,24.574c1.151,0,2.111,0.958,2.111,2.111
			s-0.958,2.111-2.111,2.111c-1.153,0-2.111-0.958-2.111-2.111S61.033,24.574,62.185,24.574z"/>
	</g>
</g>
</svg>
